src/svg/uf14b-pencil-square.svg

<!-- Generated by IcoMoon.io -->
<svg version="1.1" xmlns="http://www.w3.org/2000/svg" width="27" height="32" viewBox="0 0 27 32">
<path d="M7.214 19.786l2.714 2.714-0.929 0.929h-1v-1.714h-1.714v-1zM14.607 12.821c0.143 0.125 0.107 0.375-0.054 0.536l-5.196 5.196c-0.161 0.161-0.411 0.196-0.536 0.054-0.143-0.125-0.107-0.375 0.054-0.536l5.196-5.196c0.161-0.161 0.411-0.196 0.536-0.054zM9.714 25.143l9.714-9.714-5.143-5.143-9.714 9.714v5.143h5.143zM20.571 14.286l1.643-1.643c0.661-0.661 0.661-1.768 0-2.429l-2.714-2.714c-0.661-0.661-1.768-0.661-2.429 0l-1.643 1.643zM27.429 7.429v17.143c0 2.839-2.304 5.143-5.143 5.143h-17.143c-2.839 0-5.143-2.304-5.143-5.143v-17.143c0-2.839 2.304-5.143 5.143-5.143h17.143c2.839 0 5.143 2.304 5.143 5.143z"></path>
</svg>

<svg xmlns="http://www.w3.org/2000/svg" width="27" height="32"><path d="M7.214 19.786L9.928 22.5l-.929.929h-1v-1.714H6.285v-1zm7.393-6.965c.143.125.107.375-.054.536l-5.196 5.196c-.161.161-.411.196-.536.054-.143-.125-.107-.375.054-.536l5.196-5.196c.161-.161.411-.196.536-.054zM9.714 25.143l9.714-9.714-5.143-5.143L4.571 20v5.143h5.143zm10.857-10.857l1.643-1.643a1.736 1.736 0 0 0 0-2.429L19.5 7.5a1.736 1.736 0 0 0-2.429 0l-1.643 1.643zm6.858-6.857v17.143a5.145 5.145 0 0 1-5.143 5.143H5.143A5.145 5.145 0 0 1 0 24.572V7.429a5.145 5.145 0 0 1 5.143-5.143h17.143a5.145 5.145 0 0 1 5.143 5.143z"/></svg>
